assets/features/channel/southeast-asia/zalo.svg

<svg width="80" height="80" viewBox="0 0 80 80" fill="none" xmlns="http://www.w3.org/2000/svg">
<rect width="80" height="80" rx="8" fill="#0068FF"/>
<path d="M18.2561 46.3019C21.035 46.3019 23.6472 46.2821 26.2435 46.3019C27.6964 46.3218 28.4864 46.9286 28.6373 48.0866C28.804 49.5382 27.9584 50.5138 26.3745 50.5297C23.3931 50.5654 20.4316 50.5495 17.4502 50.5495C16.5848 50.5495 15.7392 50.5852 14.8738 50.5297C13.8059 50.4741 12.7578 50.252 12.2417 49.1495C11.7257 48.047 12.0949 47.0555 12.7935 46.1512C15.628 42.5501 18.4784 38.9252 21.3327 35.3242C21.4995 35.1021 21.6622 34.8839 21.829 34.6817C21.6464 34.3684 21.3883 34.5151 21.166 34.4992C19.1771 34.4794 17.1723 34.4992 15.1874 34.4794C14.7269 34.4794 14.2664 34.4239 13.8257 34.3327C12.7777 34.0947 12.1346 33.0477 12.3727 32.0165C12.5395 31.3185 13.0913 30.7474 13.79 30.5809C14.2306 30.4698 14.6911 30.4143 15.1516 30.4143C18.4268 30.3945 21.7218 30.3945 24.9969 30.4143C25.5845 30.3945 26.1561 30.4698 26.7278 30.6166C27.9783 31.0409 28.5142 32.199 28.014 33.4126C27.5734 34.4596 26.8747 35.3598 26.172 36.2601C23.7623 39.3298 21.3526 42.3796 18.9389 45.4136C18.7325 45.6595 18.5499 45.8974 18.2561 46.3019Z" fill="white"/>
<path d="M39.602 36.6329C40.0426 36.0618 40.5032 35.5304 41.2574 35.3836C42.7104 35.0901 44.0721 36.0261 44.0919 37.4975C44.1475 41.1739 44.1276 44.8504 44.0919 48.5268C44.0919 49.4826 43.4647 50.3274 42.5635 50.605C41.6425 50.954 40.5945 50.6803 39.9871 49.8872C39.6734 49.5025 39.5464 49.4271 39.1058 49.7761C37.4305 51.1364 35.5368 51.3744 33.4924 50.7121C30.2172 49.6452 28.8754 47.0911 28.5062 43.9858C28.1211 40.6227 29.2406 37.7553 32.2617 35.9904C34.7627 34.5032 37.2995 34.6301 39.602 36.6329ZM33.0874 43.3433C33.1232 44.1524 33.3812 44.9257 33.8616 45.5682C34.854 46.8928 36.7516 47.1665 38.0934 46.175C38.3158 46.0084 38.5182 45.8062 38.7008 45.5682C39.733 44.1722 39.733 41.8719 38.7008 40.4759C38.1847 39.7581 37.3749 39.3377 36.5095 39.3179C34.4848 39.1909 33.0676 40.7535 33.0874 43.3433ZM52.3532 43.4544C52.2063 38.7309 55.3147 35.2012 59.7332 35.0703C64.4256 34.9236 67.8476 38.0686 67.9945 42.6612C68.1414 47.3132 65.291 50.601 60.8924 51.0452C56.0889 51.5251 52.2778 48.0509 52.3532 43.4544ZM56.9702 43.0141C56.9344 43.9342 57.2084 44.8345 57.7602 45.588C58.7725 46.9127 60.6661 47.1705 61.992 46.1393C62.1945 45.9926 62.3612 45.8101 62.524 45.6237C63.5919 44.2277 63.5919 41.8719 62.5439 40.4759C62.0278 39.7779 61.2179 39.3377 60.3525 39.3179C58.3715 39.2068 56.9702 40.7139 56.9702 43.0141ZM50.7335 39.7977C50.7335 42.6453 50.7533 45.4968 50.7335 48.3444C50.7533 49.6492 49.7212 50.7359 48.4151 50.7716C48.1928 50.7716 47.9546 50.7517 47.7323 50.6962C46.8113 50.4583 46.1126 49.4826 46.1126 48.3246V33.71C46.1126 32.8454 46.0927 32.0007 46.1126 31.1361C46.1324 29.7202 47.0336 28.8001 48.3952 28.8001C49.7926 28.7803 50.7335 29.7004 50.7335 31.1718C50.7533 34.0431 50.7335 36.9303 50.7335 39.7977Z" fill="white"/>
</svg>

<svg xmlns="http://www.w3.org/2000/svg" width="80" height="80" fill="none" viewBox="0 0 80 80"><rect width="80" height="80" fill="#0068ff" rx="8"/><path fill="#fff" d="M18.256 46.302c2.779 0 5.391-.02 7.988 0 1.452.02 2.242.627 2.393 1.785.167 1.451-.679 2.427-2.262 2.443-2.982.035-5.943.02-8.925.02-.865 0-1.71.035-2.576-.02-1.068-.056-2.116-.278-2.632-1.38-.516-1.103-.147-2.094.551-2.999 2.835-3.6 5.685-7.226 8.54-10.827.167-.222.33-.44.496-.642-.183-.314-.44-.167-.663-.183-1.989-.02-3.994 0-5.979-.02-.46 0-.92-.055-1.361-.146a1.933 1.933 0 0 1-1.453-2.316 1.95 1.95 0 0 1 1.417-1.436c.44-.111.901-.167 1.362-.167 3.275-.02 6.57-.02 9.845 0 .587-.02 1.16.056 1.73.203 1.251.424 1.787 1.582 1.287 2.796-.44 1.047-1.14 1.947-1.842 2.847q-3.614 4.604-7.233 9.154c-.206.245-.39.483-.683.888"/><path fill="#fff" d="M39.602 36.633c.44-.571.901-1.103 1.655-1.25 1.453-.293 2.815.643 2.835 2.114.056 3.677.036 7.353 0 11.03 0 .956-.627 1.8-1.529 2.078a2.235 2.235 0 0 1-2.576-.718c-.314-.385-.44-.46-.881-.11-1.675 1.36-3.57 1.597-5.614.935-3.275-1.067-4.617-3.62-4.986-6.726-.385-3.363.735-6.23 3.756-7.996 2.5-1.487 5.038-1.36 7.34.643m-6.515 6.71a4 4 0 0 0 .775 2.225c.992 1.325 2.89 1.599 4.231.607q.334-.25.608-.607c1.032-1.396 1.032-3.696 0-5.092a2.77 2.77 0 0 0-2.191-1.158c-2.025-.127-3.442 1.436-3.423 4.025m19.266.111c-.147-4.723 2.962-8.253 7.38-8.384 4.693-.146 8.115 2.999 8.262 7.591.146 4.652-2.704 7.94-7.103 8.384-4.803.48-8.614-2.994-8.539-7.59m4.617-.44a4.07 4.07 0 0 0 .79 2.574 3 3 0 0 0 4.232.551c.203-.146.37-.329.532-.515 1.068-1.396 1.068-3.752.02-5.148a2.83 2.83 0 0 0-2.191-1.158c-1.982-.111-3.383 1.396-3.383 3.696m-6.236-3.216c0 2.847.02 5.699 0 8.546a2.39 2.39 0 0 1-2.319 2.428c-.222 0-.46-.02-.683-.076-.92-.238-1.62-1.213-1.62-2.371V33.71c0-.865-.02-1.71 0-2.574.02-1.416.922-2.336 2.283-2.336 1.398-.02 2.338.9 2.338 2.372.02 2.871 0 5.758 0 8.626"/></svg>
